!!!!SEGMENT: pl-kozmzk--mzk-m-33--005_szymanowska-maria--le-connois-tu-ma-chere-eleonore.krn
!!!cenid: 18xx:2740
!!!COM: Szymanowska, Maria
!!!COM-rismID: pe140138
!!!CDT: 1789/12/14-1831/07/25
!!!CNT: Polish
!!!OTL: Le connois-tu ma chère Eléonore
!!!PDT:
!!!AGN: Secular
!!!SMS-siglum: PL-KOZmzk
!!!SMS-shelfmark: mzk/m/33
!!!SMS-shelfwork: 005 W
!!!SMS-variant:
!!!SMS-altvar:
!!!NIFC-rismSourceID: 1001082122
!!!NIFC-islandoraID: pl-kozmzk:6878
!!!URL-pdf-islandora: https://repozytorium.nifc.pl/islandora/object/pl-kozmzk%3A6878/datastream/PDF/view
!!!URL-scan: https://polish.musicsources.pl/pl/lokalizacje/galeria/klocki-introligatorskie/380 @EN{Scan on Polish Music Sources Website} @PL{Skany w portalu Dziedzictwo Muzyki Polskiej w otwartym dostępie}
!!!ONB-nifc: UWAGA: „Six Romances” M. Szymanowskiej na str. 63-70
!!!AIN: 2 piano 1 vox
!!!key:
**kern	**kern	**dynam	**kern	**text
*part3	*part2	*part2	*part1	*part1
*staff3	*staff2	*	*staff1	*staff1
*Ipiano	*Ipiano	*	*Ivox	*
*I"Pianof.	*I"Pianof.	*	*I"Chant	*
*>[A,A1,A,A1,A,A2,B]	*>[A,A1,A,A1,A,A2,B]	*	*>[A,A1,A,A1,A,A2,B]	*
*>A	*>A	*	*>A	*
*clefF4	*clefG2	*	*clefG2	*
*k[f#]	*k[f#]	*	*k[f#]	*
*G:	*G:	*	*G:	*
*M2/4	*M2/4	*	*M2/4	*
=1	=1	=1	=1	=1
!!LO:TX:a:B:i:t=Allegretto grazioso
*ped	*	*	*	*
!LO:TX:t=P:problem=oznaczenie ped pomiędzy dwoma systemami pf	!	!	!LO:TX:a:t=[segno]	!
!LO:TX:a:t=[segno]	!LO:TX:a:t=[segno]	!	!	!
8G 8GG/	16r	.	2r	.
.	16B\LL	.	.	.
8r	16d\	.	.	.
.	16g\JJ	.	.	.
!LO:TX:a:t=m.g.	!	!	!	!
8dd>/ 8b>/	16r	.	.	.
.	16B\LL	.	.	.
8r	16d\	.	.	.
.	16g\JJ	.	.	.
=2	=2	=2	=2	=2
8G 8GG/	16r	.	2r	.
.	16B\LL	.	.	.
8r	16d\	.	.	.
.	16g\JJ	.	.	.
8gg> 8b>/	16r	.	.	.
.	16B\LL	.	.	.
8r	16d\	.	.	.
.	16g\JJ	.	.	.
=3	=3	=3	=3	=3
8C 8CC/	16r	.	2r	.
.	16c\LL	.	.	.
8r	16e\	.	.	.
.	16g\JJ	.	.	.
8ee> 8cc>/	16r	.	.	.
.	16c\LL	.	.	.
8r	16e\	.	.	.
.	16g\JJ	.	.	.
=4	=4	=4	=4	=4
8C#X 8CC#X/	16r	sf	2r	.
.	16B-X\LL	.	.	.
8r	16e\	.	.	.
.	16g\JJ	.	.	.
8gg> 8b-X>/	16r	.	.	.
.	16B-\LL	.	.	.
8r	16e\	.	.	.
.	16g\JJ	.	.	.
=5	=5	=5	=5	=5
!	!	!	!LO:TX:a:t=Paroles de Mr. de Bernis.	!
8D 8DD/	16r	.	2r	.
.	16Bn\LL	.	.	.
8r	16d\	.	.	.
.	16g\JJ	.	.	.
8dd> 8bn>/	16r	.	.	.
.	16B\LL	.	.	.
8r	16d\	.	.	.
.	16g\JJ	.	.	.
=6	=6	=6	=6	=6
!!LO:LB:g=original
8D 8DD/	16r	.	2r	.
.	16c\LL	.	.	.
8r	16d\	.	.	.
.	16f#\JJ	.	.	.
8dd> 8c>c/	16r	.	.	.
.	16c\LL	.	.	.
8r	16d\	.	.	.
.	16f#\JJ	.	.	.
=7	=7	=7	=7	=7
8G 8GG/	16r	.	2r	.
.	16B\LL	.	.	.
8r	16d\	.	.	.
.	16g\JJ	.	.	.
8dd> 8b>/	16r	.	.	.
.	16B\LL	.	.	.
8r	16d\	.	.	.
.	16g\JJ	.	.	.
=8	=8	=8	=8	=8
8F# 8FF#/	16r	.	8r	.
.	16c\LL	.	.	.
8r	16d\	.	8d/	Le
.	16a\JJ	.	.	.
8dd> 8cc>/	16r	.	8e/	con-
.	16c\LL	.	.	.
8r	16d\	.	8d/	-nois
.	16a\JJ	.	.	.
=9	=9	=9	=9	=9
8G 8GG/	16r	.	4.d/	tu,
.	16B\LL	.	.	.
8r	16d\	.	.	.
.	16g\JJ	.	.	.
8dd> 8b>/	16r	.	.	.
.	16B\LL	.	.	.
8r	16d\	.	8g/	ma
.	16g\JJ	.	.	.
=10	=10	=10	=10	=10
8D 8DD/	16r	.	8f#/	chere
.	16c\LL	.	.	.
8r	16d\	.	8dd/	E-
.	16f#\JJ	.	.	.
8dd> 8cc>/	16r	.	8cc/	-le-
.	16c\LL	.	.	.
8r	16d\	.	8a/	-o-
.	16f#\JJ	.	.	.
=11	=11	=11	=11	=11
8G 8GG/	16r	.	4g/	-no-
.	16B\LL	.	.	.
8r	16d\	.	.	.
.	16g\JJ	.	.	.
8dd> 8b>/	16r	.	4d/	-re
.	16B\LL	.	.	.
8r	16d\	.	.	.
.	16g\JJ	.	.	.
=12	=12	=12	=12	=12
8F# 8FF#/	16r	.	8r	.
.	16c\LL	.	.	.
8r	16d\	.	8d/	ce
.	16a\JJ	.	.	.
.	.	.	8qf#/	.
8dd> 8cc>/	16r	.	8e/	tendre
.	16c\LL	.	.	.
8r	16d\	.	8d/	en-
.	16a\JJ	.	.	.
=13	=13	=13	=13	=13
!!LO:LB:g=original
8G 8GG/	16r	.	4.d/	-fant
.	16B\LL	.	.	.
8r	16d\	.	.	.
.	16g\JJ	.	.	.
8dd> 8b>/	16r	.	.	.
.	16B\LL	.	.	.
8r	16d\	.	8g/	qui
.	16g\JJ	.	.	.
=14	=14	=14	=14	=14
8BB 8BBB/	16r	.	8f#/	te
.	16A\LL	.	.	.
8r	16B\	.	8cc/	suit
.	16f#\JJ	.	.	.
8b> 8a>/	16r	.	8b/	en
.	16A\LL	.	.	.
8r	16B\	.	8d#X/	tout
.	16f#\JJ	.	.	.
=15	=15	=15	=15	=15
8E 8EE/	16r	.	2e/	lieu
.	16G\LL	.	.	.
8r	16B\	.	.	.
.	16e\JJ	.	.	.
8b> 8g>/	16r	.	.	.
.	16G\LL	.	.	.
8r	16B\	.	.	.
.	16e\JJ	.	.	.
=16	=16	=16	=16	=16
!	!	!LO:HP:a	!	!
8AA 8AAA/	16r	<	8r	.
.	16G\LL	.	.	.
8r	16c#X\	.	8e/	ce fai-
.	16e\JJ	.	.	.
8a> 8g>/	16r	.	8f#/	-ble
.	16G\LL	.	.	.
8r	16c#\	.	8g/	en-
.	16e\JJ	[[	.	.
=17	=17	=17	=17	=17
8D 8DD/	16r	.	4.a/	-fant
.	16F#\LL	.	.	.
8r	16A\	.	.	.
.	16d\JJ	.	.	.
8a> 8f#>/	16r	.	.	.
.	16F#\LL	.	.	.
8r	16A\	.	8f#/	qui
.	16d\JJ	.	.	.
=18	=18	=18	=18	=18
8C#X 8CC#X/	16r	.	8e/	le
.	16G\LL	.	.	.
8r	16A\	.	8e/	se
.	16e\JJ	.	.	.
8a> 8g>/	16r	.	8f#/	roit
.	16G\LL	.	.	.
8r	16A\	.	8g/	en-
.	16e\JJ	.	.	.
=19	=19	=19	=19	=19
.	.	.	16qqf#/LL	.
.	.	.	16qqg/JJ	.
8D 8DD/	16r	.	4a/	-co-
.	16F#\LL	.	.	.
8r	16A\	.	.	.
.	16d\JJ	.	.	.
8a> 8f#>/	16r	.	4f#/	-re
.	16F#\LL	.	.	.
8r	16A\	.	.	.
.	16d\JJ	.	.	.
=20	=20	=20	=20	=20
!!LO:LB:g=original
8C#X 8CC#X/	16r	.	8r	.
.	16G\LL	.	.	.
8r	16A\	.	8e/	si
.	16e\JJ	.	.	.
8a> 8g>/	16r	.	8f#/	tes
.	16G\LL	.	.	.
8r	16A\	.	8g/	re-
.	16e\JJ	.	.	.
=21	=21	=21	=21	=21
8D 8DD/	16r	.	8a/L	-gards
.	16F#\LL	.	.	.
8r	16A\	.	8f#/J	.
.	16d\JJ	.	.	.
8a> 8f#>/	16r	.	[4dd^\	n'en
.	16F#\LL	.	.	.
8r	16A\	.	.	.
.	16d\JJ	.	.	.
=22	=22	=22	=22	=22
8GG 8GGG/	16r	.	8dd\L]	.
.	16G\LL	.	.	.
8r	16B\	.	8b\J	.
.	16e\JJ	.	.	.
8b> 8g>/	16r	.	8g/	a-
.	16G\LL	.	.	.
8r	16B\	.	8e/	-voient
.	16e\JJ	.	.	.
=23	=23	=23	=23	=23
4AA/	16r	.	(4d/	fait
.	16F#\LL	.	.	.
.	16A\	.	.	.
.	16d\JJ	.	.	.
4AAA/	16r	.	8f#/)	.
.	16G\LL	.	.	.
.	16A\	.	8e/	un
.	16c#X\JJ	.	.	.
=24	=24	=24	=24	=24
8D 8DD/	16r	.	8d/	Dieu,
.	16F#\LL	.	.	.
8r	16A\	.	8a/	si
.	16d\JJ	.	.	.
8cc> 8a>/	16r	.	8b/	tes
.	16F#\LL	.	.	.
8r	16A\	.	8cc/	re-
.	16d\JJ	.	.	.
=25	=25	=25	=25	=25
8G 8GG/	16r	.	(4dd\	-gards
.	16B\LL	.	.	.
8r	16d\	.	.	.
.	16g\JJ	.	.	.
8dd> 8b>/	16r	.	4b\)	.
.	16B\LL	.	.	.
8r	16d\	.	.	.
.	16g\JJ	.	.	.
=26	=26	=26	=26	=26
8F# 8FF#/	16r	.	8r	.
.	16c\LL	.	.	.
8r	16d\	.	8a/	si
.	16a\JJ	.	.	.
8dd> 8cc>/	16r	.	8b/	tes
.	16c\LL	.	.	.
8r	16d\	.	8cc/	re-
.	16a\JJ	.	.	.
=27	=27	=27	=27	=27
!!LO:PB:g=original
8G 8GG/	8g 8d 8B/	.	8b/	-gards
8r	8r	.	8r	.
[4E-X [4EE-X/	[4gg [4cc#X [4b-X [4g\	f	[4gg^\	n'en
=28	=28	=28	=28	=28
2E-] 2EE-/]	2gg] 2cc#] 2b-] 2g\]	.	8gg\L]	.
!	!	!LO:HP:a	!	!
.	.	>	8ee-X\J	.
.	.	.	8dd\	a-
.	.	]	8cc#X\	-voient
=29	=29	=29	=29	=29
8D 8DD/	16r	p	(>[2dd\	fuit
.	16B\LL	.	.	.
8r	16d\	.	.	.
.	16g\JJ	.	.	.
8dd> 8b>/	16r	.	.	.
.	16B\LL	.	.	.
8r	16d\	.	.	.
.	16g\JJ	.	.	.
=30	=30	=30	=30	=30
8D 8DD/	16r	.	8dd/L]	.
.	16c\LL	.	.	.
8r	16d\	.	8cc/	.
.	16f#\JJ	.	.	.
8dd> 8cc>/	16r	.	8a/J	.
.	16c\LL	.	.	.
8r	16d\	.	8b/)	un
.	16f#\JJ	.	.	.
=31	=31	=31	=31	=31
4GG/	16r	.	4g/	Dieu.
.	16G/LL	.	.	.
.	16B/	.	.	.
.	16d/JJ	.	.	.
8r	16g/LL	.	4r	.
.	16b/	.	.	.
8B 8BB^\	16dd/	.	.	.
.	16gg/JJ	.	.	.
=32	=32	=32	=32	=32
8r	16dd#X\LL	.	2r	.
.	16ee\	.	.	.
8c 8C^\	16a\	.	.	.
.	16aa\JJ	.	.	.
8r	16ee#X\LL	.	.	.
.	16ff#\	.	.	.
8d 8D^\	16b\	.	.	.
.	16bb\JJ	.	.	.
=33	=33	=33	=33	=33
!!LO:LB:g=original
8r	16ff#\LL	.	2r	.
.	16gg\	.	.	.
8e 8E^\	16cc\	.	.	.
.	16ccc\JJ	.	.	.
8r	16gg#X\LL	.	.	.
.	16aa\	.	.	.
8f# 8F#\	16dd\	.	.	.
.	16ddd\JJ	.	.	.
=34	=34	=34	=34	=34
8gL 8G\	16bb\LL	<	2r	.
.	16ggg\	.	.	.
8c#XJ 8C#X\	16aa#X\	.	.	.
.	16ggg\JJ	.	.	.
8dL 8D\	16bb\LL	.	.	.
.	16ggg\	.	.	.
8e-XJ 8E-X\	16ccc#X\	.	.	.
.	16ggg\JJ	[[	.	.
=35	=35	=35	=35	=35
*>A1	*>A1	*	*>A1	*
!	!LO:TX:a:t=pour les autres\nCouplets	!	!	!
2d 2D\	16r	.	2r	.
.	16ggg\LL	f	.	.
.	16ddd\	.	.	.
.	16bb\JJ	.	.	.
.	16gg\LL	.	.	.
.	16dd\	.	.	.
.	16b\	.	.	.
.	16g\JJ	.	.	.
=36	=36	=36	=36	=36
16r	2dd 2cc 2a 2f#/	.	2r	.
(16D\LL	.	.	.	.
16F#\	.	.	.	.
16A\JJ	.	.	.	.
16d\LL	.	.	.	.
16c\	.	.	.	.
16A\	.	.	.	.
16B\JJ)	.	.	.	.
!LO:TX:a:t=[segno]	!LO:TX:a:t=[segno]	!	!LO:TX:a:t=[segno]	!
=37||	=37||	=37||	=37||	=37||
*>A2	*>A2	*	*>A2	*
!	!LO:TX:a:t=pour finis	!	!	!
4G\	16r	.	2r	.
.	16G/LL	.	.	.
.	16B/	.	.	.
.	16d/JJ	.	.	.
8r	16g/LL	.	.	.
.	16b/	.	.	.
8B 8BB^\	16dd/	.	.	.
.	16gg/JJ	.	.	.
=38	=38	=38	=38	=38
8r	16dd#X\LL	.	2r	.
.	16ee\	.	.	.
8c 8C^\	16a\	.	.	.
.	16aa\JJ	.	.	.
8r	16ee#X\LL	.	.	.
.	16ff#\	.	.	.
8d 8D^\	16b\	.	.	.
.	16bb\JJ	.	.	.
=39	=39	=39	=39	=39
!!LO:LB:g=original
*>B	*>B	*	*>B	*
8r	16ff#\LL	.	2r	.
.	16gg\	.	.	.
8e 8E\	16cc\	.	.	.
.	16ccc\JJ	.	.	.
8r	16gg#X\LL	.	.	.
.	16aa\	.	.	.
8f# 8F#\	16dd\	.	.	.
.	16ddd\JJ	.	.	.
=40	=40	=40	=40	=40
8gL 8G'\	16bb\LL	.	2r	.
.	16ggg\	.	.	.
8c#XJ 8C#X'\	16aa#X\	.	.	.
.	16ggg\JJ	.	.	.
8dL 8D'\	16bb\LL	.	.	.
.	16ggg\	.	.	.
8e-XJ 8E-X'\	16ccc#X\	.	.	.
.	16ggg\JJ	.	.	.
=41	=41	=41	=41	=41
2d 2D\	16r	.	2r	.
.	16ggg\LL	f	.	.
.	16ddd\	.	.	.
.	16bb\JJ	.	.	.
.	16gg\LL	.	.	.
.	16dd\	.	.	.
.	16b\	.	.	.
.	16g\JJ	.	.	.
=42	=42	=42	=42	=42
16r	2dd 2cc 2a 2f#/	.	2r	.
(16D\LL	.	.	.	.
16F#\	.	.	.	.
16A\JJ	.	.	.	.
16d\LL	.	.	.	.
16c\	.	.	.	.
16A\	.	.	.	.
16B\JJ)	.	.	.	.
=43	=43	=43	=43	=43
8G'\	16r	.	2r	.
.	16G/LL	.	.	.
8r	16B/	.	.	.
.	16d/JJ	.	.	.
4r	16g/LL	.	.	.
.	16b/	.	.	.
.	16dd/	.	.	.
.	16ff#/JJ	.	.	.
=44	=44	=44	=44	=44
2r;	4gg/	.	2r;	.
.	4r;	.	.	.
==	==	==	==	==
*-	*-	*-	*-	*-
!!!system-decoration: s1{s2,s3}
!!!RDF**kern: > = above
!!!RDF**kern: < = below
!!!ENC: Kamil Watkowski
!!!END: 2021-08-09
